filter-menu.svg

<svg fill="currentColor" viewBox="0 0 24 24"><path d="m11 11 5.76-7.38a1 1 0 0 0-.17-1.4A1 1 0 0 0 16 2H2a1 1 0 0 0-.62.22 1 1 0 0 0-.17 1.4L7 11v5.87a1 1 0 0 0 .29.83l2 2a1 1 0 0 0 1.41 0 1 1 0 0 0 .3-.83zm2 5 5 5 5-5Z"/></svg>

<svg  viewBox="0 0 24 24" fill="currentColor"><path  d="M11 11L16.76 3.62A1 1 0 0 0 16.59 2.22A1 1 0 0 0 16 2H2A1 1 0 0 0 1.38 2.22A1 1 0 0 0 1.21 3.62L7 11V16.87A1 1 0 0 0 7.29 17.7L9.29 19.7A1 1 0 0 0 10.7 19.7A1 1 0 0 0 11 18.87V11M13 16L18 21L23 16Z"/></svg>
